img/svg/code.svg

<?xml version="1.0" encoding="iso-8859-1"?>
<!-- Generator: Adobe Illustrator 19.0.0, SVG Export Plug-In . SVG Version: 6.00 Build 0)  -->
<svg version="1.1" id="Capa_1" xmlns="http://www.w3.org/2000/svg" xmlns:xlink="http://www.w3.org/1999/xlink" x="0px" y="0px"
	 viewBox="0 0 512 512" style="enable-background:new 0 0 512 512;" xml:space="preserve">
<g>
	<g>
		<path d="M0,15.845v420.259h164.332v30.049h-30.036v30.001h243.407v-30.001h-30.036v-30.049H512V15.845H0z M317.665,466.153
			H194.334v-30.049h123.332V466.153z M481.999,406.103H30.001v-60.075h451.997V406.103z M481.999,316.027H30.001V45.847h451.997
			V316.027z"/>
	</g>
</g>
<g>
	<g>
		<polygon points="203.943,126.712 182.729,105.498 107.29,180.937 182.729,256.375 203.943,235.161 149.718,180.937 		"/>
	</g>
</g>
<g>
	<g>
		<polygon points="329.271,105.498 308.057,126.712 362.282,180.937 308.057,235.161 329.271,256.375 404.709,180.937 		"/>
	</g>
</g>
<g>
	<g>
		
			<rect x="166.742" y="165.947" transform="matrix(0.1951 -0.9808 0.9808 0.1951 28.5815 396.7237)" width="178.511" height="30.002"/>
	</g>
</g>
<g>
</g>
<g>
</g>
<g>
</g>
<g>
</g>
<g>
</g>
<g>
</g>
<g>
</g>
<g>
</g>
<g>
</g>
<g>
</g>
<g>
</g>
<g>
</g>
<g>
</g>
<g>
</g>
<g>
</g>
</svg>

<svg width="512" height="512" viewBox="0 0 512 512" fill="none" xmlns="http://www.w3.org/2000/svg">
<path d="M0 15.845V436.104H164.332V466.153H134.296V496.154H377.703V466.153H347.667V436.104H512V15.845H0ZM317.665 466.153H194.334V436.104H317.666V466.153H317.665ZM481.999 406.103H30.001V346.028H481.998V406.103H481.999ZM481.999 316.027H30.001V45.847H481.998V316.027H481.999Z" fill="black"/>
<path d="M203.943 126.712L182.729 105.498L107.29 180.937L182.729 256.375L203.943 235.161L149.718 180.937L203.943 126.712Z" fill="black"/>
<path d="M329.271 105.498L308.057 126.712L362.282 180.937L308.057 235.161L329.271 256.375L404.709 180.937L329.271 105.498Z" fill="black"/>
<path d="M258.701 90.4758L223.874 265.559L253.3 271.413L288.127 96.3292L258.701 90.4758Z" fill="black"/>
</svg>
